X: 34
T: Julia Delaney
C:anon
B:Francis O'Neill: "The Dance Music of Ireland" (1907) no. 643
R:Reel
M:C|
L:1/8
K:Dm
|: "Dm"dcAG F2DF | "C"E2CE "Dm"F2D2 | dcAG F2DF |1,3 "Am"Addc "Dm(Bb)"defe \
                                               :|2,4 "Am"Addc "Dm"d4 :|
|: "Dm"f2fe fagf | "C"ecgc acgc |1,3 "Dm"f2fe fagf | "C"edce "Dm"Adde \
                               :|2,4 "Dm"fedf "C"edce | "Am"Addc "Dm"d4 :|

%%sep 1 1 500

